icons/features/f-2.svg

<svg aria-hidden="true" focusable="false" data-prefix="fas" data-icon="gavel" class="svg-inline--fa fa-gavel fa-w-16" role="img" xmlns="http://www.w3.org/2000/svg" viewBox="0 0 512 512"><path fill="currentColor" d="M504.971 199.362l-22.627-22.627c-9.373-9.373-24.569-9.373-33.941 0l-5.657 5.657L329.608 69.255l5.657-5.657c9.373-9.373 9.373-24.569 0-33.941L312.638 7.029c-9.373-9.373-24.569-9.373-33.941 0L154.246 131.48c-9.373 9.373-9.373 24.569 0 33.941l22.627 22.627c9.373 9.373 24.569 9.373 33.941 0l5.657-5.657 39.598 39.598-81.04 81.04-5.657-5.657c-12.497-12.497-32.758-12.497-45.255 0L9.373 412.118c-12.497 12.497-12.497 32.758 0 45.255l45.255 45.255c12.497 12.497 32.758 12.497 45.255 0l114.745-114.745c12.497-12.497 12.497-32.758 0-45.255l-5.657-5.657 81.04-81.04 39.598 39.598-5.657 5.657c-9.373 9.373-9.373 24.569 0 33.941l22.627 22.627c9.373 9.373 24.569 9.373 33.941 0l124.451-124.451c9.372-9.372 9.372-24.568 0-33.941z"></path></svg>

<svg width="512" height="512" viewBox="0 0 512 512" fill="none" xmlns="http://www.w3.org/2000/svg">
<path d="M504.971 199.362L482.344 176.735C472.971 167.362 457.775 167.362 448.403 176.735L442.746 182.392L329.608 69.255L335.265 63.598C344.638 54.225 344.638 39.029 335.265 29.657L312.638 7.02902C303.265 -2.34398 288.069 -2.34398 278.697 7.02902L154.246 131.48C144.873 140.853 144.873 156.049 154.246 165.421L176.873 188.048C186.246 197.421 201.442 197.421 210.814 188.048L216.471 182.391L256.069 221.989L175.029 303.029L169.372 297.372C156.875 284.875 136.614 284.875 124.117 297.372L9.37299 412.118C-3.12401 424.615 -3.12401 444.876 9.37299 457.373L54.628 502.628C67.125 515.125 87.386 515.125 99.883 502.628L214.628 387.883C227.125 375.386 227.125 355.125 214.628 342.628L208.971 336.971L290.011 255.931L329.609 295.529L323.952 301.186C314.579 310.559 314.579 325.755 323.952 335.127L346.579 357.754C355.952 367.127 371.148 367.127 380.52 357.754L504.971 233.303C514.343 223.931 514.343 208.735 504.971 199.362V199.362Z" fill="white"/>
</svg>
